material/.icons/material/arrow-expand-down.svg

<svg xmlns="http://www.w3.org/2000/svg" viewBox="0 0 24 24"><path d="M22 4V2H2v2h9v14.17l-5.5-5.5-1.42 1.41L12 22l7.92-7.92-1.42-1.41-5.5 5.5V4h9z"/></svg>

<?xml version="1.0" encoding="UTF-8"?><!DOCTYPE svg PUBLIC "-//W3C//DTD SVG 1.1//EN" "http://www.w3.org/Graphics/SVG/1.1/DTD/svg11.dtd"><svg xmlns="http://www.w3.org/2000/svg" xmlns:xlink="http://www.w3.org/1999/xlink" version="1.1" id="mdi-arrow-expand-down" width="24" height="24" viewBox="0 0 24 24"><path d="M22,4V2H2V4H11V18.17L5.5,12.67L4.08,14.08L12,22L19.92,14.08L18.5,12.67L13,18.17V4H22Z" /></svg>
